src/face-negative-filled.svg

<svg viewBox="0 0 16 16" fill="none" xmlns="http://www.w3.org/2000/svg"><path fill-rule="evenodd" clip-rule="evenodd" d="M15 8C15 11.866 11.866 15 8 15C4.13401 15 1 11.866 1 8C1 4.13401 4.13401 1 8 1C11.866 1 15 4.13401 15 8ZM5.56514 7.08744C6.0694 7.08744 6.47819 6.67866 6.47819 6.1744C6.47819 5.67014 6.0694 5.26135 5.56514 5.26135C5.06088 5.26135 4.6521 5.67014 4.6521 6.1744C4.6521 6.67866 5.06088 7.08744 5.56514 7.08744ZM6.00277 11.0433C6.00277 10.5056 6.23449 10.1181 6.58864 9.85252C6.9552 9.57759 7.46654 9.42643 8.00005 9.42643C8.53355 9.42643 9.04489 9.57759 9.41146 9.85252C9.7656 10.1181 9.99733 10.5057 9.99733 11.0433H10.8723C10.8723 10.2113 10.4954 9.5717 9.93646 9.15252C9.38999 8.74266 8.68394 8.55143 8.00005 8.55143C7.31616 8.55143 6.61011 8.74266 6.06364 9.15252C5.50473 9.57169 5.12777 10.2113 5.12777 11.0433H6.00277ZM10.4347 7.08744C10.9389 7.08744 11.3477 6.67866 11.3477 6.1744C11.3477 5.67014 10.9389 5.26135 10.4347 5.26135C9.93042 5.26135 9.52164 5.67014 9.52164 6.1744C9.52164 6.67866 9.93042 7.08744 10.4347 7.08744Z" fill="#111111"/></svg>

<svg viewBox="0 0 16 16" fill="none" xmlns="http://www.w3.org/2000/svg"><path fill-rule="evenodd" clip-rule="evenodd" d="M15 8A7 7 0 1 1 1 8a7 7 0 0 1 14 0Zm-9.435-.913a.913.913 0 1 0 0-1.826.913.913 0 0 0 0 1.826Zm.438 3.956c0-.537.231-.925.586-1.19.366-.275.878-.427 1.411-.427.534 0 1.045.152 1.411.427.355.265.586.653.586 1.19h.875c0-.832-.377-1.471-.936-1.89C9.39 8.743 8.684 8.55 8 8.55c-.684 0-1.39.192-1.936.602a2.294 2.294 0 0 0-.936 1.89h.875Zm4.432-3.956a.913.913 0 1 0 0-1.826.913.913 0 0 0 0 1.826Z" fill="#111111"/></svg>
